ncols        20
nrows        20
xllcorner    312865.925999999978
yllcorner    3902481.992999999784
cellsize     1000.000000000000
16 16 16 16 16 16 16 16 16 16 16 16 16 16 16 16 16 16 16 16 
16 16 6 6 6 6 16 16 16 16 16 16 16 16 16 16 16 16 16 16 
16 16 6 6 6 6 16 16 16 16 16 16 16 16 16 16 16 16 16 16 
2 2 6 6 6 6 6 6 16 16 16 16 16 16 16 16 16 16 16 16 
2 2 6 6 6 6 6 6 16 16 16 16 16 16 16 16 16 16 16 16 
2 2 6 6 6 6 6 6 16 16 16 16 16 16 16 16 16 16 16 16 
2 2 2 2 2 6 6 6 16 16 16 16 16 16 16 16 16 16 16 16 
2 2 2 2 2 2 2 2 16 16 16 16 16 16 16 16 16 16 16 16 
2 2 2 2 2 2 2 2 16 16 16 16 16 16 16 16 16 16 16 16 
6 6 2 2 2 2 6 6 2 6 6 16 16 16 16 16 16 16 16 16 
6 6 6 6 6 6 2 2 2 2 2 6 6 6 6 8 1 1 1 1 
2 6 6 6 6 2 9 9 9 6 6 6 6 6 6 6 1 1 1 6 
2 6 6 6 6 2 9 9 9 6 6 6 6 6 6 6 1 1 1 6 
2 2 2 2 2 2 9 9 9 2 2 6 6 2 2 6 6 6 6 6 
6 6 2 2 2 6 9 9 6 6 6 6 2 2 2 6 6 6 6 2 
6 6 2 2 2 6 9 9 6 6 6 6 2 2 2 6 6 6 6 2 
6 6 2 2 2 2 6 6 6 6 6 2 2 2 2 2 2 2 2 2 
6 6 6 2 2 2 6 6 6 6 6 2 2 2 2 2 2 2 2 2 
6 6 6 6 6 6 6 6 6 6 6 6 2 2 2 2 2 2 2 2 
6 6 6 6 6 6 6 6 6 6 6 6 2 2 2 2 2 2 2 2 
